!!!SOCIAL_FUNCTION:	songs of principal social dances with corn dance
!!!PDT:	1956
!!!OTL: No_65_Alligator_Dance_Song_(b)_.krn
!!!LANG: Non-Tone
!!!LING_GROUP: Muskogean
!!!REG: Florida
**kern
*staff1
=1-
=
*clefF4
*k[b-]
*M3/4
4c\
4c\
4c\
=2
4.c\
8B-\
(8A\L
16F\Jk)
16r
=3
4c\
4c\
4B-\
=4
4.A\
8F\
4F\
=5||
*M2/4
8B-\L
8A\J
4B-\
=6
4.A\
8F\
=7
4F\
4r
=8||
*M3/4
4F\
4F\
4F\
=9
(4.A\
8F\)
4F\
==:|!
*-
